common/svg/project-transfer-icon.svg

<svg fill="none" height="20" viewBox="0 0 20 20" width="20" xmlns="http://www.w3.org/2000/svg"><g fill="#000"><path clip-rule="evenodd" d="m11.0887 4h-7.83996c-.57438 0-1.04.46562-1.04 1.04v9.92c0 .5744.46562 1.04 1.04 1.04h9.91996c.5744 0 1.04-.4656 1.04-1.04v-1.7831l2-1.6638v3.4469c0 1.6789-1.361 3.04-3.04 3.04h-9.91996c-1.67895 0-3.04-1.3611-3.04-3.04v-9.92c0-1.67895 1.36105-3.04 3.04-3.04h7.83996zm5.12 5.82207-2 1.66383v-6.4459c0-.57438-.4656-1.04-1.04-1.04h-.78v-2l3.82 3.17789z" fill-rule="evenodd"/><path d="m12.3886 13v-3.33483c-2.89408 0-4.92917 1.18773-5.92919 2.08513-.17463.1567-.47567.0278-.45872-.2109.35104-4.94694 4.34541-6.27239 6.38791-6.3041v-3.2353l6.6114 5.5z"/></g></svg>

<svg width="20" height="20" viewBox="0 0 20 20" fill="none" xmlns="http://www.w3.org/2000/svg">
<path fill-rule="evenodd" clip-rule="evenodd" d="M11.0887 4H3.24874C2.67436 4 2.20874 4.46562 2.20874 5.04V14.96C2.20874 15.5344 2.67436 16 3.24874 16H13.1687C13.7431 16 14.2087 15.5344 14.2087 14.96V13.1769L16.2087 11.5131V14.96C16.2087 16.6389 14.8477 18 13.1687 18H3.24874C1.56979 18 0.20874 16.6389 0.20874 14.96V5.04C0.20874 3.36105 1.56979 2 3.24874 2H11.0887V4ZM16.2087 9.82207L14.2087 11.4859V5.04C14.2087 4.46562 13.7431 4 13.1687 4H12.3887V2H12.3887L16.2087 5.17789V9.82207Z" fill="black"/>
<path d="M12.3886 13V9.66517C9.49452 9.66517 7.45943 10.8529 6.45941 11.7503C6.28478 11.907 5.98374 11.7781 6.00069 11.5394C6.35173 6.59246 10.3461 5.26701 12.3886 5.2353V2L19 7.5L12.3886 13Z" fill="black"/>
</svg>
